X:379
T:Pas de quatre de Luxey
R:polka
C:trad
N:original url: www.wolfram.claranet.de
B:Der Tanzb\"ar 3, Teuscher T. und Dietz W., Reichelsheim: Verlag der Spielleute 2000
M:4/4
L:1/8
K:C
e2d2c2G2| cdegf/e/dec| e2d2c2G2| cdegf/e/dc2|
|cdedcde2| defefged| cdedcde2| defefgc2|
